static/img/kroki/4f35f276712dc27d4969a484ee372659.svg

<?xml version="1.0" encoding="us-ascii" standalone="no"?><svg xmlns="http://www.w3.org/2000/svg" xmlns:xlink="http://www.w3.org/1999/xlink" contentStyleType="text/css" height="374px" preserveAspectRatio="none" style="width:230px;height:374px;" version="1.1" viewBox="0 0 230 374" width="230px" zoomAndPan="magnify"><defs/><g><!--class gcp_resource--><g id="elem_gcp_resource"><rect codeLine="23" fill="#3D176E" height="39.7891" id="gcp_resource" rx="2.5" ry="2.5" style="stroke:#000D19;stroke-width:0.5;" width="150" x="40" y="167.79"/><ellipse cx="55" cy="187.6845" fill="#ADD1B2" rx="11" ry="11" style="stroke:#181818;stroke-width:1.0;"/><path d="M57.9688,193.3252 Q57.3906,193.622 56.75,193.7627 Q56.1094,193.9189 55.4063,193.9189 Q52.9063,193.9189 51.5781,192.2783 Q50.2656,190.622 50.2656,187.497 Q50.2656,184.372 51.5781,182.7158 Q52.9063,181.0595 55.4063,181.0595 Q56.1094,181.0595 56.75,181.2158 Q57.4063,181.372 57.9688,181.6689 L57.9688,184.3877 Q57.3438,183.8095 56.75,183.5439 Q56.1563,183.2627 55.5313,183.2627 Q54.1875,183.2627 53.5,184.3408 Q52.8125,185.4033 52.8125,187.497 Q52.8125,189.5908 53.5,190.6689 Q54.1875,191.7314 55.5313,191.7314 Q56.1563,191.7314 56.75,191.4658 Q57.3438,191.1845 57.9688,190.6064 L57.9688,193.3252 Z " fill="#000000"/><text fill="#D9B8FF" font-family="Helvetica" font-size="17" lengthAdjust="spacing" textLength="108" x="74" y="193.5698">gcp_resource</text></g><!--class gcp_target_ssl_proxy--><g id="elem_gcp_target_ssl_proxy"><rect codeLine="26" fill="#3D176E" height="39.7891" id="gcp_target_ssl_proxy" rx="2.5" ry="2.5" style="stroke:#000D19;stroke-width:0.5;" width="216" x="7" y="328.58"/><ellipse cx="22" cy="348.4745" fill="#ADD1B2" rx="11" ry="11" style="stroke:#181818;stroke-width:1.0;"/><path d="M24.9688,354.1152 Q24.3906,354.412 23.75,354.5527 Q23.1094,354.7089 22.4063,354.7089 Q19.9063,354.7089 18.5781,353.0683 Q17.2656,351.412 17.2656,348.287 Q17.2656,345.162 18.5781,343.5058 Q19.9063,341.8495 22.4063,341.8495 Q23.1094,341.8495 23.75,342.0058 Q24.4063,342.162 24.9688,342.4589 L24.9688,345.1777 Q24.3438,344.5995 23.75,344.3339 Q23.1563,344.0527 22.5313,344.0527 Q21.1875,344.0527 20.5,345.1308 Q19.8125,346.1933 19.8125,348.287 Q19.8125,350.3808 20.5,351.4589 Q21.1875,352.5214 22.5313,352.5214 Q23.1563,352.5214 23.75,352.2558 Q24.3438,351.9745 24.9688,351.3964 L24.9688,354.1152 Z " fill="#000000"/><text fill="#D9B8FF" font-family="Helvetica" font-size="17" lengthAdjust="spacing" textLength="174" x="41" y="354.3598">gcp_target_ssl_proxy</text></g><!--class resource--><g id="elem_resource"><rect codeLine="29" fill="#3D176E" height="39.7891" id="resource" rx="2.5" ry="2.5" style="stroke:#000D19;stroke-width:0.5;" width="113" x="58.5" y="7"/><ellipse cx="73.5" cy="26.8945" fill="#ADD1B2" rx="11" ry="11" style="stroke:#181818;stroke-width:1.0;"/><path d="M76.4688,32.5352 Q75.8906,32.832 75.25,32.9727 Q74.6094,33.1289 73.9063,33.1289 Q71.4063,33.1289 70.0781,31.4883 Q68.7656,29.832 68.7656,26.707 Q68.7656,23.582 70.0781,21.9258 Q71.4063,20.2695 73.9063,20.2695 Q74.6094,20.2695 75.25,20.4258 Q75.9063,20.582 76.4688,20.8789 L76.4688,23.5977 Q75.8438,23.0195 75.25,22.7539 Q74.6563,22.4727 74.0313,22.4727 Q72.6875,22.4727 72,23.5508 Q71.3125,24.6133 71.3125,26.707 Q71.3125,28.8008 72,29.8789 Q72.6875,30.9414 74.0313,30.9414 Q74.6563,30.9414 75.25,30.6758 Q75.8438,30.3945 76.4688,29.8164 L76.4688,32.5352 Z " fill="#000000"/><text fill="#D9B8FF" font-family="Helvetica" font-size="17" lengthAdjust="spacing" textLength="71" x="92.5" y="32.7798">resource</text></g><!--reverse link resource to gcp_resource--><g id="link_resource_gcp_resource"><path codeLine="32" d="M115,65.05 C115,95.57 115,136.9 115,167.46 " fill="none" id="resource-backto-gcp_resource" style="stroke:#FFAF37;stroke-width:2.0;"/><polygon fill="none" points="115,47.05,109,65.05,121,65.05,115,47.05" style="stroke:#FFAF37;stroke-width:2.0;"/></g><!--reverse link gcp_resource to gcp_target_ssl_proxy--><g id="link_gcp_resource_gcp_target_ssl_proxy"><path codeLine="33" d="M115,225.84 C115,256.36 115,297.69 115,328.25 " fill="none" id="gcp_resource-backto-gcp_target_ssl_proxy" style="stroke:#FFAF37;stroke-width:2.0;"/><polygon fill="none" points="115,207.84,109,225.84,121,225.84,115,207.84" style="stroke:#FFAF37;stroke-width:2.0;"/></g><!--SRC=[XP1FJuD04CNlV8fDUYO16wKaNYg9qKjZh7UoiBEm0NR9x635FzzTiLeNiErnv_tslJTJAW4CcfPwra2J0LhFLagt77d3reXcbvZQ85j8oUKocegtHjDPOCCRO7TGFmEfd4-9frBbbGPhsOKZtV2yAj1qMkpj2RcsNn9eSgYavjQkYL1b7O5JHiJPIiefEJLTB4KONS4CCoW0Vv0W24GOJv6pKIVtFX1RzGeiT8-sCGIpchE8R-faou5mIiuM_TMFTdpWGYXTi4jdzhZlX1fmDD-MN9ZTG4jUMpV64Y0Owbj8Pbj1l18o-XU-FmPx-N0wLkHjYc1DXpcmDy_xSER4iG1AhQtJ5irBx-hZFuVNzRll-oDJRvJmfq_DlKy0]--></g></svg>

<svg xmlns="http://www.w3.org/2000/svg" width="230" height="374" viewBox="0 0 230 374"><rect width="150" height="39.789" x="40" y="167.79" fill="#3D176E" rx="2.5" ry="2.5" style="stroke:#000d19;stroke-width:.5"/><circle cx="55" cy="187.685" r="11" fill="#ADD1B2" style="stroke:#181818;stroke-width:1"/><path d="M57.969 193.325q-.578.297-1.219.438-.64.156-1.344.156-2.5 0-3.828-1.64-1.312-1.657-1.312-4.782t1.312-4.781q1.328-1.656 3.828-1.656.703 0 1.344.156.656.156 1.219.453v2.719q-.625-.578-1.219-.844-.594-.281-1.219-.281-1.343 0-2.031 1.078-.687 1.062-.687 3.156t.687 3.172q.688 1.062 2.031 1.062.625 0 1.219-.265.594-.281 1.219-.86z"/><text x="74" y="193.57" fill="#D9B8FF" font-family="Helvetica" font-size="17" textLength="108">gcp_resource</text><rect width="216" height="39.789" x="7" y="328.58" fill="#3D176E" rx="2.5" ry="2.5" style="stroke:#000d19;stroke-width:.5"/><circle cx="22" cy="348.474" r="11" fill="#ADD1B2" style="stroke:#181818;stroke-width:1"/><path d="M24.969 354.115q-.578.297-1.219.438-.64.156-1.344.156-2.5 0-3.828-1.64-1.312-1.657-1.312-4.782t1.312-4.781q1.328-1.656 3.828-1.656.703 0 1.344.156.656.156 1.219.453v2.719q-.625-.579-1.219-.844-.594-.281-1.219-.281-1.343 0-2.031 1.078-.687 1.062-.687 3.156t.687 3.172q.688 1.062 2.031 1.062.625 0 1.219-.265.594-.281 1.219-.86z"/><text x="41" y="354.36" fill="#D9B8FF" font-family="Helvetica" font-size="17" textLength="174">gcp_target_ssl_proxy</text><rect width="113" height="39.789" x="58.5" y="7" fill="#3D176E" rx="2.5" ry="2.5" style="stroke:#000d19;stroke-width:.5"/><circle cx="73.5" cy="26.895" r="11" fill="#ADD1B2" style="stroke:#181818;stroke-width:1"/><path d="M76.469 32.535q-.578.297-1.219.438-.64.156-1.344.156-2.5 0-3.828-1.64-1.312-1.657-1.312-4.782t1.312-4.781q1.328-1.656 3.828-1.656.703 0 1.344.156.656.156 1.219.453v2.719q-.625-.578-1.219-.844-.594-.281-1.219-.281-1.344 0-2.031 1.078-.687 1.062-.687 3.156T72 29.879q.688 1.062 2.031 1.062.625 0 1.219-.265.594-.281 1.219-.86z"/><text x="92.5" y="32.78" fill="#D9B8FF" font-family="Helvetica" font-size="17" textLength="71">resource</text><path fill="none" d="M115 65.05v102.41m0-120.41-6 18h12zm0 178.79v102.41m0-120.41-6 18h12z" style="stroke:#ffaf37;stroke-width:2"/></svg>
